X:1
T:Prelude No.15 in D flat major
T:Fryderyk Chopin
%%score { ( 1 3 ) | ( 2 4 ) }
L:1/8
Q:1/4=85
M:4/4
K:Db
V:1 treble nm="Piano" snm="Pno."
V:3 treble 
V:2 bass 
V:4 bass 
V:1
"^Sostenuto" f>d A4 B2 | c6 d2 | [Ge]>[Af] [Bg]4 [Af]2 | f3 e d2{/e} (7:4:7e/f/e/=d/e/f/g/ | %4
 f>d A4 B2 | c6 d2 | [Ge]>[Af] [Bg]4 [Af]2 | f3 e d2 cd | e2 e4 f2 | gfed f4 | %10
 e_cBA B2{=cBA} B>_c | A2 e2 d2 _f2 | e2 e4 =f2 | gfed f4- | fdcB c2{dcB} cd | B2 f2 e2 g2 | %16
 fdcB c2{dcB} c>d | B2 e2 f2 e2 | f6 e2 | f>d A4 B2 | c6 d2 | [Ge]>[Af] [Bg]4 [Af]2 | %22
 f3 e d2 (7:4:7=d/e/=e/f/a/=g/_g/ | f>d A4 B2 | c6 d2 | [Ge]>[Af] [Bg]4 c2 | e4 z4 | %27
[K:E] G,G,G,G, G,G,G,G, | G,G,G,G, G,G,G,G, | G,G,G,G, G,G,G,G, | G,G,G,G, G,G,G,G, | %31
 G,G,G,G, G,G,G,G, | G,G,G,G, G,G,G,G, | G,G,G,G, G,G,G,G, | %34
 G,[G,G][G,G][G,G] [G,G][G,G][G,G][G,G] | [G,G][G,G][G,G][G,G] [G,G][G,G][G,G][G,G] | %36
 [G,G][G,G][G,G][G,G] [G,G][G,G][G,G][G,G] | [G,G][G,G][G,G][G,G] [G,G][G,G][G,G][G,G] | %38
 [G,G][G,G][G,G][G,G] [G,G][G,G][G,G][G,G] | [B,B][B,B][B,B][B,B] [B,B][B,B][B,B][B,B] | %40
 [B,B][B,B][B,B][B,B] [B,B][B,B][B,B][B,B] | [B,B][B,B][B,B][B,B] [B,B][B,B][B,B][B,B] | %42
 [B,DGB]G,G,G, G,G,G,G, | G,G,G,G, G,G,G,G, | G,G,G,G, G,G,G,G, | G,G,G,G, G,G,G,G, | %46
 G,G,G,G, G,G,G,G, | G,G,G,G, G,G,G,G, | G,G,G,G, G,G,G,G, | G,G,G,G, G,G,G,G, | %50
 G,[G,G][G,G][G,G] [G,G][G,G][G,G][G,G] | [G,G][G,G][G,G][G,G] [G,G][G,G][G,G][G,G] | %52
 [G,G][G,G][G,G][G,G] [G,G][G,G][G,G][G,G] | [G,G][G,G][G,G][G,G] [G,G][G,G][G,G][G,G] | %54
 [G,G][G,G][G,G][G,G] [G,G][G,G][G,G][G,G] | [B,B][B,B][B,B][B,B] [B,B][B,B][B,B][B,B] | %56
 [B,B][B,B][B,B][B,B] [B,B][B,B][B,B][B,B] | [B,B][B,B][B,B][B,B] [B,B][B,B][B,B][B,B] | %58
 [B,DGB]GGG GGGG | GGGG GGGG | GGGG GGGG | GGGG GGGG | GGFF GGAA | G,G,G,G, G,G,G,G, | %64
 G,G,G,G, G,G,G,G, | G,G,G,G, G,G,G,G, | G,G,G,G, G,G,G,G, | GGGG GGGG | GGGG GGGG | GGGG GGGG | %70
 CCCC CCCC | G,G,G,G, G,G,G,G, | G,G,G,G, G,G,G,G, | G,G,G,G, G,G,G,G, | G,G,G,G, G,G,G,G, | %75
[K:Db] f>d A4 B2 | c6 d2 | [Ge]>[Af] [Bg]4 [DAf]2 | f3 e d>=d (10:4:10e/f/e/d/e/=e/f/a/=g/_g/ | %79
 f>d A4 B2 | c2 z2 z2[Q:1/4=65]"^Slentando" b2- | b2 a2 g2 c2 | f2 e2 d2 B2 | [EG]8 | F8 | [EG]8 | %86
 [CEG]8 |[Q:1/4=40]"^Ritenuto" [DF]8 | !fermata![A,DF]8 |] %89
V:2
 D,A,A,A, A,A,A,A, | A,A,A,A, B,A,A,A, | C A,2 A, A,A,DA, | CA,GA, [DF]A,[CG]A, | %4
 D,A,A,A, A,A,A,A, | CA,A,A, B,A,[DF]A, | C A,2 A, A,A,DA, | CA,GA, [DF]A,[DF]A, | %8
 A,,A,[CE]A, [_CE]A,[D,_CF]D | [G,B,]D[B,G]D D,A,[DF]A, | E,A,[_CE]A, E,=G,[DE]=G, | %11
 A,,A,[_CE]A, [B,D]A,[D_F]A, | A,,A,A,A, A,A,[C=F]A, | E,G,[B,G]G, B,,F,[B,DF]F, | %14
 F,,F,[B,DF]F, F,,F,[=A,EF]F, | B,,F,[DF]F, [CE]F,[EG]F, | [DF]F,[B,DF]F, [=A,E]F,FF, | %17
 B,,F,[CE]F, [DF]F,[CE]F, | A,F,F,F, [DF]F,[CE]F, | D,A,A,A, A,A,[DF]A, | A,A,A,A, A,A,[DF]A, | %21
 C A,2 A, A,A,DA, | CA,[CG]A, [DF]A,[CG]A, | D,A,A,A, A,A,A,A, | A,A,A,A, B,A,[DF]A, | %25
 C A,2 A, A,A,EA, | A,A,A,A, A,A,A,A, |[K:E] [C,,G,,]2 [D,,G,,]2 [E,,C,]2 [D,,^B,,]2 | %28
 [D,,G,,]2 [E,,G,,]2 [F,,D,]2 [E,,C,]2 | [E,,C,]2 [G,,D,]2 [C,E,]2 [G,,D,]2 | [G,,D,]8- | %31
 [G,,D,]2 [C,E,]2 [G,,D,]2 [E,,C,]2 | [G,,D,]2 [E,,C,]2 [D,,^B,,]2 [E,,C,]2 | %33
 [D,,^B,,]2 [E,,C,]2 [D,,D,]2 [C,,E,]2 | [G,,D,]8 | [C,,G,,]2 [D,,G,,]2 [E,,C,]2 [D,,^B,,]2 | %36
 [D,,G,,]2 [E,,G,,]2 [F,,D,]2 [E,,C,]2 | [F,,C,]2 [G,,D,]2 [C,E,]2 [G,,D,]2 |{/G,,,} [G,,D,]8 | %39
 [E,,,E,,]4 [B,,,B,,]4 | [E,,,E,,]4 [B,,,B,,]3 [^G,,,^A,,] | [G,,,G,,]4 [D,,D,]4 | [G,,,G,,]4 z4 | %43
 [C,,G,,]2 [D,,G,,]2 [E,,C,]2 [D,,^B,,]2 | [D,,G,,]2 [E,,G,,]2 [F,,D,]2 [E,,C,]2 | %45
 [E,,C,]2 [G,,D,]2 [C,E,]2 [G,,D,]2 | [G,,D,]8- | [G,,D,]2 [C,E,]2 [G,,D,]2 [E,,C,]2 | %48
 [G,,D,]2 [E,,C,]2 [D,,^B,,]2 [E,,C,]2 | [D,,^B,,]2 [E,,C,]2 [D,,D,]2 [C,,E,]2 | [G,,D,]8 | %51
 [C,,G,,]2 [D,,G,,]2 [E,,C,]2 [D,,^B,,]2 | [D,,G,,]2 [E,,G,,]2 [F,,D,]2 [E,,C,]2 | %53
 [F,,C,]2 [G,,D,]2 [C,E,]2 [G,,D,]2 |{/G,,,} [G,,D,]8 | [E,,,E,,]4 [B,,,B,,]4 | %56
 [E,,,E,,]4 [B,,,B,,]3 [^G,,,^A,,] | [G,,,G,,]4 [D,,D,]4 | [G,,,G,,]4 z4 | [F,,G,,]4 G,,4 | %60
 [G,,,G,,]6 [G,,G,]2 | [C,G,]4 G,,4 | [A,,A,]4 [G,,G,]2 [F,,F,]2 | G,,4 [C,,G,,]4 | %64
 [G,,,G,,]2 [C,,G,,]6 | [C,,G,,]2 [G,,,G,,]4 [C,,G,,]2 | [G,,,G,,]8 | G,,G,,G,,G,, z4 | z8 | %69
 [C,,G,,]4 [G,,G,]4 | [^E,,^E,]4 [F,,F,]4 | [B,,,^B,,]4 [C,,C,]4 | [G,,,G,,]6 [C,,G,,]2 | %73
 [G,,,G,,]6 [C,,G,,]2 | [G,,,G,,]2 G,,2 G,^E,F,D, |[K:Db] D,A,A,A, A,A,A,A, | A,A,A,A, B,A,A,A, | %77
 C A,2 A, A,A,DA, | CA,GA, [DF]A,[CG]A, | D,A,A,A, A,A,A,A, | [EG]A,A,A, B,A, z2 | z8 | z8 | %83
 z A,A,A, A,A,A,A, | A,A,A,A, A,A,A,A, | A,A,A,A, A,A,A,A, | A,A,A,A, A,A,A,A, | D,4 A,,4 | D,,8 |] %89
V:3
 x8 | x8 | x8 | x8 | x8 | x8 | x8 | x8 | x8 | x8 | x8 | x8 | x8 | x8 | x8 | x8 | x8 | x8 | x8 | %19
 x8 | x8 | x8 | x8 | x8 | x8 | x8 | x8 |[K:E] x8 | x8 | x8 | x8 | x8 | x8 | x8 | x8 | %35
 z2 z2 C2 ^B,2 | z z z z D2 C2- | C2 D2 E2 D2 | D8 | !>![EG]4 !>![DG]4 | !>![EG]4 !>![DG]4 | %41
 !>![DG]4 !>![D^^F]4 | x8 | x8 | x8 | x8 | x8 | x8 | x8 | x8 | x8 | z2 z2 C2 ^B,2 | %52
 z z z z D2 C2- | C2 D2 E2 D2 | D8 | !>![EG]4 !>![DG]4 | !>![EG]4 !>![DG]4 | !>![DG]4 !>![D^^F]4 | %58
 x8 | [^B,^B]4 [Cc]4 | [Dcd]6 [D^Bd]2 | [Ede]2 [Ece]2 [Dcd]2 [D^Bd]2 | [Cc]8 | %63
 [^B,DG]4 [CEG]2 [^B,DG]2 | [^B,DG]2 [CEG]2 [^A,CG]2 [CEG]2 | [CEG]2 [^B,DG]2 [DFG]2 [FAc]2 | %66
 [^B,DG]8 | [^B,^B]4 [Cc]4 | [Dcd]6 [D^Bd]2 | [Ede]2 [Ece]2 [Dcd]2 [D^Bd]2 | %70
 [G=Bc]4 [GAc]2 [FAc]2 | [DFG]4 [CFG]2 [CE^A]2 | [CE^A]4 [^B,DG]2 [CE^A]2 | %73
 [CE^A]4 [^B,DG]2 [CE^G]2 | [CE^A]2 [^B,DG]2 z4 |[K:Db] x8 | x8 | x8 | x8 | x8 | x8 | x8 | x8 | %83
 B,4 C4 | D4 DD E>D | D2 C2 B2 C2 | x8 | A,A,A,A, A,A,A,A, | x8 |] %89
V:4
 x8 | x8 | x8 | x8 | x8 | x8 | x8 | x8 | x8 | x8 | x8 | x8 | x8 | x8 | x8 | x8 | x8 | x8 | x8 | %19
 x8 | x8 | x8 | x8 | x8 | x8 | x8 | x8 |[K:E] x8 | x8 | x8 | x8 | x8 | x8 | x8 | x8 | x8 | x8 | %37
 x8 | x8 | x8 | x8 | x8 | x8 | x8 | x8 | x8 | x8 | x8 | x8 | x8 | x8 | x8 | x8 | x8 | x8 | x8 | %56
 x8 | x8 | x8 | F,4 [E,,E,]2 [C,,C,]2 | x8 | x8 | x8 | x8 | x8 | x8 | x8 | %67
 [F,,F,]4 [E,,G,,E,]2 [C,,C,]2 | [F,,,G,,]8 | x8 | x8 | x8 | x8 | x8 | x8 |[K:Db] x8 | x8 | x8 | %78
 x8 | x8 | x8 | x8 | x8 | A,,8 | D,8 | A,,8 | A,,8 | x8 | x8 |] %89

